!!!OTL: Wo shuo laoban shi tiao niu
!!!ARE: Asia, China,ÿHubei, Jiangling
!! I, 429
!!!SCT: C1443
!!!YEM: Copyright 1995, estate of Helmut Schaffrath.
**kern
*ICvox
*Ivox
!! Mixed meters:  2/4; 3/4
*M2/4
*k[f#c#g#d#]
*E:
{16g#
16b
16cc#
16ee
8b
16cc#
16ee
=1
16cc#
16cc#
8cc#
4r}
=2
{16b
16ee
16cc#
16b
16cc#
16ee
16cc#
16b
=3
16g#
16ee
16b
16b
16g#
16ee
8cc#
=4
16g#
16ee
16cc#
16b
16g#
16ee
8cc#}
=5
{16g#
16ee
16cc#
16ee
8cc#
8b
=6
8.b
16cc#
4ff#
=7
16cc#
16ff#
8ee
8ee
16ee
16cc#
=8
8b
8cc#
4b}
=9
{8cc#
16b
16cc#
8g#
16b
16ee
=10
16cc#
16cc#
8cc#
4r
=11
*M3/4
16g#
16ee
16cc#
16ee
8cc#
8cc#
4r}
=12
*M2/4
{16g#
16ee
16b
16b
16g#
16ee
8cc#
=13
16g#
16ee
16cc#
16b
16g#
16ee
8cc#}
=14
{16cc#
16ee
16cc#
16b
8cc#
8b
=15
8.b
16cc#
4ff#
=16
8ff#
16ee
16ff#
16cc#
16ee
16ee
16cc#
=17
8b
8cc#
4b}
=18
{16cc#
16ee
16cc#
16b
16cc#
16ee
16cc#
16ee
=19
16cc#
16cc#
8cc#
4r
=20
*M3/4
16cc#
16ee
16cc#
16b
8b
8b
4r}
=21
*M2/4
{16g#
16ee
16b
16b
16g#
16ee
8cc#
=22
16g#
16ee
16cc#
16b
16g#
16ee
8cc#}
=23
{16cc#
16ee
16cc#
16ee
8b
8b
=24
8.b
16cc#
4ff#
=25
16cc#
16ff#
16cc#
16ee
16ee
16cc#
16ee
16cc#
=26
8b
8cc#
4b}
==
!!!AGN: Shange, Tiange, Haocaoge
!!!ONB: ESAC (Essen Associative Code) Database: HUANG
!!!AMT: irregular
!!!AIN: vox
!!!EED: Helmut Schaffrath
!!!EEV: 1.0
*-
